public/images/svg/gitverse.svg

<?xml version="1.0" encoding="utf-8"?>
<svg xmlns="http://www.w3.org/2000/svg"
     viewBox="0 0 41 41" role="img"
     aria-label="GitVerse"
     fill="white"
     width="512">
    <g><path fill-rule="evenodd" clip-rule="evenodd" d="M37.0689 21.7098C37.0689 31.1365 29.427 38.7785 20.0003 38.7785C10.5736 38.7785 2.93167 31.1365 2.93167 21.7098C2.93167 12.283 10.5736 4.64114 20.0003 4.64114C23.8833 4.64114 27.4635 5.93777 30.3316 8.12166L30.9361 7.37965C30.9251 7.37127
        30.914 7.36289 30.903 7.35453C27.8757 5.05163 24.0977 3.68457 20.0003 3.68457C10.0453 3.68457 1.9751 11.7547 1.9751 21.7098C1.9751 31.6649 10.0453 39.7351 20.0003 39.7351C29.9554 39.7351 38.0255 31.6649 38.0255 21.7098C38.0255 17.4292 36.5335 13.4971 34.041 10.4053C33.8983 10.7944
        33.753 11.1926 33.6546 11.4661C35.7986 14.3193 37.0689 17.8662 37.0689 21.7098Z"/></g>
    <g><path fill-rule="evenodd" clip-rule="evenodd" d="M 14.65 29.319 C 15.962 29.583 17.716 29.423 19.658 29.246 C 22.831 28.956 26.505 28.621 29.568 30.019 C 27.786 29.737 25.376 29.691 22.441 30.371 C 19.4 31.077 17.972 32.462 16.278 33.677 C 12.863 36.126 11.804 35.558 13.27 36.407 C 15.578
        37.743 17.608 37.762 18.255 37.824 C 20.89 37.947 21.323 37.936 23.354 37.52 C 25.725 36.894 26.811 36.597 28.585 35.33 C 32.133 32.795 32.331 31.974 33.408 30.679 C 34.711 28.342 34.098 29.526 34.655 28.189 C 35.417 26.158 35.707 25.572 35.802 22.246 C 35.849 20.597 35.591 18.947 35.777
        17.362 C 36.521 11.034 37.088 2.616 34.62 1.513 C 32.235 0.446 29.388 4.821 27.219 8.155 C 26.757 8.866 26.325 9.529 25.935 10.082 L 23.585 10.082 C 22.272 10.082 21.003 10.548 20.002 11.397 L 15.348 15.343 C 15.09 15.562 14.764 15.684 14.426 15.689 L 5.703 15.807 C 6.726 16.367 7.879
        16.647 9.044 16.618 L 9.178 16.615 C 9.731 16.601 10.145 17.117 10.013 17.654 L 9.838 18.362 C 9.696 18.94 9.372 19.458 8.914 19.839 L 7.178 21.284 C 7.153 21.309 7.141 21.334 7.141 21.371 L 7.165 22.177 C 7.181 22.706 7.458 23.19 7.922 23.443 C 9.16 24.118 11.812 25.413 14.65 25.857 C
        17.943 26.371 19.673 25.693 20.513 25.363 C 20.67 25.301 20.796 25.252 20.895 25.225 C 20.945 25.212 21.019 25.299 21.019 25.299 C 18.588 26.835 17.557 27.332 14.65 27.245 C 11.742 27.158 7.178 24.856 7.178 24.856 C 7.066 24.807 6.967 24.968 7.079 25.042 C 7.079 25.042 10.307 28.444 14.65
        29.319 Z M 19.557 16.053 C 19.582 15.372 19.953 14.789 20.499 14.455 C 21.602 14.616 22.605 14.938 23.485 15.681 C 23.522 15.855 23.547 16.041 23.535 16.239 C 23.485 17.305 22.605 18.135 21.552 18.135 L 21.465 18.135 C 20.362 18.085 19.507 17.156 19.557 16.053 Z M 19.824 9.028 C 18.461
        9.028 17.135 9.474 16.049 10.298 L 13.968 11.878 C 13.906 11.927 13.807 11.878 13.807 11.804 C 13.861 11.005 13.897 10.175 13.932 9.348 C 14.091 5.645 14.247 2.007 16.068 1.552 C 17.803 1.118 19.935 5.968 20.976 9.028 L 20.188 9.028 L 19.824 9.028 Z M 19.636 10.447 L 14.511 14.549 C 14.363
        14.668 14.18 14.732 13.991 14.732 L 11.99 14.732 L 16.913 10.918 C 17.706 10.303 18.683 9.973 19.686 9.981 C 19.785 9.981 20.002 10.158 19.636 10.447 Z M 5.119 20.746 L 5.119 19.759 L 5.999 20.912 L 5.999 23.365 C 5.428 22.611 5.119 21.692 5.119 20.746 Z M 5.119 19.759 C 5.119 19.661 5.082
        19.673 5.119 19.759 Z M 32.088 13.71 C 31.214 12.601 30.196 11.614 29.061 10.776 C 29.061 10.776 31.764 5.733 33.226 6.192 C 34.687 6.65 32.568 14.319 32.568 14.319 L 32.088 13.71 Z"/></g>
</svg>

<?xml version="1.0" encoding="utf-8"?>
<svg xmlns="http://www.w3.org/2000/svg"
     viewBox="0 0 41 41" role="img"
     aria-label="GitVerse"
     fill="white"
     width="512">
    <path fill-rule="evenodd" clip-rule="evenodd" d="M37.069 21.71c0 9.427-7.642 17.069-17.069 17.069-9.426 0-17.068-7.643-17.068-17.07 0-9.426 7.642-17.068 17.068-17.068 3.883 0 7.463 1.297 10.332 3.48l.604-.741c-.01-.009-.022-.017-.033-.025A17.945 17.945 0 0 0 20 3.685c-9.955 0-18.025 8.07-18.025
      18.025 0 9.955 8.07 18.025 18.025 18.025 9.955 0 18.026-8.07 18.026-18.025a17.95 17.95 0 0 0-3.985-11.305c-.143.39-.288.788-.386 1.061a16.993 16.993 0 0 1 3.414 10.244z"/>
    <path fill-rule="evenodd" clip-rule="evenodd" d="M14.65 29.319c1.312.264 3.066.104 5.008-.073 3.173-.29 6.847-.625 9.91.773-1.782-.282-4.192-.328-7.127.352-3.041.706-4.469 2.091-6.163 3.306-3.415 2.449-4.474 1.881-3.008 2.73 2.308 1.336 4.338 1.355 4.985 1.417 2.635.123 3.068.112 5.099-.304
      2.371-.626 3.457-.923 5.231-2.19 3.548-2.535 3.746-3.356 4.823-4.651 1.303-2.337.69-1.153 1.247-2.49.762-2.031 1.052-2.617 1.147-5.943.047-1.649-.211-3.299-.025-4.884.744-6.328 1.311-14.746-1.157-15.849-2.385-1.067-5.232 3.308-7.401 6.642a64.345 64.345 0 0 1-1.284 1.927h-2.35a5.538 5.538 0 0
      0-3.583 1.315l-4.654 3.946a1.458 1.458 0 0 1-.922.346l-8.723.118c1.023.56 2.176.84 3.341.811l.134-.003a.839.839 0 0 1 .835 1.039l-.175.708a2.787 2.787 0 0 1-.924 1.477l-1.736 1.445a.113.113 0 0 0-.037.087l.024.806c.016.529.293 1.013.757 1.266 1.238.675 3.89 1.97 6.728 2.414 3.293.514 5.023-.164
      5.863-.494.157-.062.283-.111.382-.138.05-.013.124.074.124.074-2.431 1.536-3.462 2.033-6.369 1.946-2.908-.087-7.472-2.389-7.472-2.389-.112-.049-.211.112-.099.186 0 0 3.228 3.402 7.571 4.277zm4.907-13.266a1.952 1.952 0 0 1 .942-1.598c1.103.161 2.106.483 2.986 1.226.037.174.062.36.05.558a1.989
      1.989 0 0 1-1.983 1.896h-.087a1.995 1.995 0 0 1-1.908-2.082zm.267-7.025a6.246 6.246 0 0 0-3.775 1.27l-2.081 1.58c-.062.049-.161 0-.161-.074.054-.799.09-1.629.125-2.456.159-3.703.315-7.341 2.136-7.796 1.735-.434 3.867 4.416 4.908 7.476H19.824zm-.188 1.419-5.125 4.102a.828.828 0 0 1-.52.183H11.99l4.923-3.814a4.467
      4.467 0 0 1 2.773-.937c.099 0 .316.177-.05.466zM5.119 20.746v-.987l.88 1.153v2.453a4.337 4.337 0 0 1-.88-2.619zm0-.987c0-.098-.037-.086 0 0zm26.969-6.049a15.815 15.815 0 0 0-3.027-2.934s2.703-5.043 4.165-4.584c1.461.458-.658 8.127-.658 8.127l-.48-.609z"/>
</svg>
